X: 17299
T: Hethel Horn, The
R: reel
M: 4/4
K: Dmajor
M:6/4
|:B2 d2 d2 Bd cB AF|M:4/4
G2 d2 G4|A2 c2 dcBA|
M:6/4
B2 d2 d2 Bd cB AF|M:4/4
G2 d2 G4|G2 B2 A2 c2:|
|:B2 f2 f2 B2|e3f ed c2-|c2 cd c3B|cded cdcA|
B2 f2 f2 B2|e3f ed c2-|c2 cd c4|1 fg f2 fede:|2 fg f2 fedc||

